mobile/24/svg/update-circle-24.svg

<svg width="24" height="24" viewBox="0 0 24 24" fill="none" xmlns="http://www.w3.org/2000/svg">
<path d="M11.3863 7.25032C11.7268 6.91522 12.2732 6.91522 12.6138 7.25032L17.0004 11.567L15.773 12.8144L12.875 9.96262V17H11.125V9.96268L8.22709 12.8144L6.99963 11.567L11.3863 7.25032Z" fill="black"/>
<path fill-rule="evenodd" clip-rule="evenodd" d="M12 2C6.47715 2 2 6.47715 2 12C2 17.5228 6.47715 22 12 22C17.5228 22 22 17.5228 22 12C22 6.47715 17.5228 2 12 2ZM3.75 12C3.75 7.44365 7.44365 3.75 12 3.75C16.5563 3.75 20.25 7.44365 20.25 12C20.25 16.5563 16.5563 20.25 12 20.25C7.44365 20.25 3.75 16.5563 3.75 12Z" fill="black"/>
</svg>

<svg width="24" height="24" fill="none" xmlns="http://www.w3.org/2000/svg"><path d="M11.386 7.25a.875.875 0 0 1 1.228 0L17 11.567l-1.227 1.247-2.898-2.851V17h-1.75V9.963l-2.898 2.851L7 11.567l4.386-4.317z" fill="#000"/><path fill-rule="evenodd" clip-rule="evenodd" d="M12 2C6.477 2 2 6.477 2 12s4.477 10 10 10 10-4.477 10-10S17.523 2 12 2zM3.75 12a8.25 8.25 0 1 1 16.5 0 8.25 8.25 0 0 1-16.5 0z" fill="#000"/></svg>
